X: 063
M: C|
L: 1/8
K: C
V: 1
g | ecgc egca | gcec defa | gceg fadf | egde c/c/c c ||
g | ecgc egca | gcec defd | cAFc BdGf | egde c/c/c c |]
V: 2 clef=bass middle=d
z | c2e2 f2ec | c2e2 g2f2 | e2e2 f2f2 | g2G2 c2C :|
z | c2e2 c2ef | e2c2 f2d2 | e2c2 A2B2 | c2G2 c2e2||
    c2e2 c2ef | e2c2 f2d2 | A2A2 G2B2 | c2G2 c2C |]


